assets/icons/image-remove.svg

<svg width="24" height="24" viewBox="0 0 24 24" xmlns="http://www.w3.org/2000/svg" xmlns:xlink="http://www.w3.org/1999/xlink">
  <defs>
    <path id="path-1" d="M9.99975 20L0 20 0 0 9.99975 0 19.9995 0 19.9995 20z"/>
  </defs>
  <g id="Styleguide" fill="none" fill-rule="evenodd">
    <g id="Base-Style---Icons" transform="translate(-420 -691)">
      <g id="Image-Remove" transform="translate(385 691)">
        <g id="image-remove" transform="translate(37 2)">
          <path d="M7.5,3.75 C6.534,3.75 5.75,4.534 5.75,5.5 C5.75,6.466 6.534,7.25 7.5,7.25 C8.466,7.25 9.25,6.466 9.25,5.5 C9.25,4.534 8.466,3.75 7.5,3.75" id="Fill-1" fill="#999"/>
          <g id="Group-5">
            <mask id="mask-2" fill="#fff">
              <use xlink:href="#path-1"/>
            </mask>
            <path d="M14.6875,18 C12.8605,18 11.3745,16.514 11.3745,14.688 C11.3745,12.861 12.8605,11.375 14.6875,11.375 C16.5145,11.375 18.0005,12.861 18.0005,14.688 C18.0005,16.514 16.5145,18 14.6875,18 L14.6875,18 Z M8.1305,10.265 L4.7525,8.238 C4.3595,8.002 3.8555,8.064 3.5315,8.388 L1.9995,9.919 L1.9995,2 L17.0005,2 L17.0005,8.036 L13.6975,5.834 C13.3005,5.57 12.7725,5.623 12.4365,5.959 L8.1305,10.265 Z M18.9995,11.616 L18.9995,11.5 L18.9995,10.875 L18.9995,1 C18.9995,0.448 18.5525,0 18.0005,0 L0.9995,0 C0.4475,0 -0.0005,0.448 -0.0005,1 L-0.0005,18 C-0.0005,18.552 0.4475,19 0.9995,19 L10.6255,19 L11.3745,19 L11.6235,19 C12.4915,19.62 13.5415,20 14.6875,20 C17.6165,20 19.9995,17.617 19.9995,14.688 C19.9995,13.54 19.6215,12.485 18.9995,11.616 L18.9995,11.616 Z" id="Fill-3" fill="#999" mask="url(#mask-2)"/>
          </g>
          <path d="M16.4502,15.125 L13.0002,15.125 C12.7232,15.125 12.5002,14.901 12.5002,14.625 C12.5002,14.349 12.7232,14.125 13.0002,14.125 L16.4502,14.125 C16.7262,14.125 16.9502,14.349 16.9502,14.625 C16.9502,14.901 16.7262,15.125 16.4502,15.125" id="Fill-6" fill="#999"/>
        </g>
      </g>
    </g>
  </g>
</svg>

<svg width="24" height="24" viewBox="0 0 24 24" xmlns="http://www.w3.org/2000/svg" xmlns:xlink="http://www.w3.org/1999/xlink">
  <defs>
    <path id="a" d="M10 20H0V0h20v20z"/>
  </defs>
  <g fill="none" fill-rule="evenodd">
    <path d="M9.5 5.75a1.75 1.75 0 1 0 .001 3.501A1.75 1.75 0 0 0 9.5 5.75" fill="#999"/>
    <g transform="translate(2 2)">
      <mask id="b" fill="#fff">
        <use xlink:href="#a"/>
      </mask>
      <path d="M14.688 18a3.316 3.316 0 0 1-3.314-3.312 3.316 3.316 0 0 1 3.313-3.313A3.316 3.316 0 0 1 18 14.688 3.316 3.316 0 0 1 14.687 18zM8.13 10.265L4.752 8.238a1 1 0 0 0-1.22.15L2 9.919V2h15v6.036l-3.303-2.202a1 1 0 0 0-1.26.125L8.13 10.265zM19 11.616V1a1 1 0 0 0-1-1H1a1 1 0 0 0-1 1v17a1 1 0 0 0 1 1h10.623c.867.62 1.917 1 3.063 1A5.318 5.318 0 0 0 20 14.688a5.258 5.258 0 0 0-1-3.072z" fill="#999" mask="url(#b)"/>
    </g>
    <path d="M18.45 17.125H15a.5.5 0 1 1 0-1h3.45a.5.5 0 0 1 0 1" fill="#999"/>
  </g>
</svg>
